Origami/64x64/apps/lokalize.svg

<svg width="64" height="64" version="1" xmlns="http://www.w3.org/2000/svg">
 <path d="m41.9856 22 0.0144 38h-34.986c-2.9996 0-3.014-2.512-3.014-2.512v-32.488s0-3 3-3z" style="fill:#cccccc"/>
 <path d="M 6.986492,22 C 4,22 4,25 4,25 l 0.00583,0.941406 C 4.0086583,25.765442 4.0933279,23 6.986492,23 L 42,23 42,22 6.986492,22 Z" style="fill:#ffffff;opacity:.1"/>
 <path d="m19.14318 30.763332c0.8254 0.571438 1.5873 1.269812 2.2858 2.095121l-1.238 1.521944c-0.7628-0.951965-1.5566-1.745935-2.382-2.379912l1.3334-1.237953m0 5.999776c0.7619 0.571439 1.49204 1.206315 2.1904 1.904689l-1.23808 1.61898c-0.6986-0.889967-1.4606-1.651939-2.286-2.285915l1.3334-1.237954m0.38096 6.571155 1.52382 1.047601c-0.762 2.601903-1.8728 5.10981-3.3332 7.52172l-1.619-1.237954c1.46032-2.349113 2.6032-4.793422 3.4286-7.333127m4.4756-13.331503 1.80952 0.380926c-0.127 0.634936-0.31746 1.238074-0.57142 1.809472h7.4286v1.714196h-8.1904l-0.85714 1.428527c-0.25398 0.507921-0.66668 1.047601-1.23808 1.61898l-1.14288-1.33325c1.20636-1.460246 2.127-3.333276 2.762-5.618791m-0.47618 5.90458h8.762c-4e-5 1.968187-0.0318 3.809458-0.0954 5.523594h1.23808v1.714236h-1.33332c-0.127 1.33329-0.22224 2.634902-0.2857 3.904655h1.42856v1.618999h-1.61904c-0.254 2.221917-1.144 3.333876-2.668 3.333876-0.38096 0-0.92064-0.0636-1.61904-0.190393l-0.28572-1.61898c0.82538 0.126796 1.46032 0.190393 1.90476 0.190393s0.73014-0.571418 0.85716-1.714236h-7.4286c0.25396-1.714236 0.47618-3.555467 0.66666-5.523594h-1.33332v-1.714236h1.5238c0.127-1.777714 0.22222-3.618865 0.28572-5.523594m1.42856 5.523594h5.4286c0.0636-1.33327 0.0954-2.634702 0.0954-3.904654h-5.238c-0.0636 1.396787-0.1588 2.698299-0.28572 3.904654m2.384-3.427872c0.6984 0.444423 1.33334 0.952344 1.90478 1.523743l-1.14286 1.428507c-0.57144-0.634877-1.20638-1.206275-1.90476-1.714216l1.142-1.237954m2.6666 9.047263c0.127-1.333271 0.2222-2.634902 0.28572-3.904655h-5.4286c-0.127 1.396748-0.28572 2.6983-0.47618 3.904655h5.619m-2.9524-3.428473c0.76188 0.444424 1.4603 0.952345 2.0952 1.523744l-1.2381 1.428526c-0.63492-0.698394-1.3016-1.301531-2-1.809452l1.14286-1.142818m-10-11.332977v14.951842h-1.71428v-1.618979h-1.61904v2.476108h-1.71428v-15.809011h5.0476m-3.3334 11.713763h1.61904v-10.094824h-1.61904v10.094824" style="opacity:.2"/>
 <path d="m4 57.488281v1s0.015425 2.511719 3.015625 2.511719h34.984375v-1h-34.984375c-3.0002 0-3.015625-2.511719-3.015625-2.511719z" style="opacity:.2"/>
 <path d="m41.992 22-20-18v38l20 18z" style="fill:#a3a3a3"/>
 <path d="m22 4.001v37.999h34.986742c2.998864 0 3.013258-2.512934 3.013258-2.512934l-0.014-32.487144s0-2.999922-2.998864-2.999922z" style="fill:#2095f2"/>
 <path d="m38.42138 26c0.850389-3.062991 1.62282-6.24561 2.26074-9h0.135c0.793229 3.279964 1.510242 5.862861 2.29448 9h-4.6902m7.054 9h5.2638l-6.8834-22h-5.9724l-6.8834 22h5.0614l1.3497-5h6.7148l1.35 5" style="opacity:.2"/>
 <path d="m38.42138 25c0.850389-3.062991 1.62282-6.24561 2.26074-9h0.135c0.793229 3.279964 1.510242 5.862861 2.29448 9h-4.6902m7.054 9h5.2638l-6.8834-22h-5.9724l-6.8834 22h5.0614l1.3497-5h6.7148l1.35 5" style="fill:#ffffff"/>
 <path d="m22 4v1h35c3 0 3 3 3 3v-1s0-3-3-3h-35z" style="fill:#ffffff;opacity:.1"/>
 <path d="m60 39.496094c0 0.024-0.030883 2.503906-3.015625 2.503906h-34.984375v1h34.984375c2.984742 0 3.015625-2.479906 3.015625-2.503906v-1z" style="opacity:.2"/>
</svg>

<svg xmlns="http://www.w3.org/2000/svg" width="64" height="64" version="1">
 <path style="fill:#cccccc" d="M 41.9856,22 42,60 7.014,60 C 4.0144,60 4,57.488 4,57.488 L 4,25 c 0,0 0,-3 3,-3 z"/>
 <path style="opacity:0.1;fill:#ffffff" d="M 6.986492,22 C 4,22 4,25 4,25 l 0.00583,0.941406 C 4.0086583,25.765442 4.0933279,23 6.986492,23 L 42,23 42,22 6.986492,22 Z"/>
 <path style="opacity:0.2" d="m 19.14318,30.763332 c 0.8254,0.571438 1.5873,1.269812 2.2858,2.095121 l -1.238,1.521944 c -0.7628,-0.951965 -1.5566,-1.745935 -2.382,-2.379912 l 1.3334,-1.237953 m 0,5.999776 c 0.7619,0.571439 1.49204,1.206315 2.1904,1.904689 l -1.23808,1.61898 c -0.6986,-0.889967 -1.4606,-1.651939 -2.286,-2.285915 l 1.3334,-1.237954 m 0.38096,6.571155 1.52382,1.047601 c -0.762,2.601903 -1.8728,5.10981 -3.3332,7.52172 l -1.619,-1.237954 c 1.46032,-2.349113 2.6032,-4.793422 3.4286,-7.333127 M 23.99888,30 25.8084,30.380926 c -0.127,0.634936 -0.31746,1.238074 -0.57142,1.809472 l 7.4286,0 0,1.714196 -8.1904,0 -0.85714,1.428527 c -0.25398,0.507921 -0.66668,1.047601 -1.23808,1.61898 l -1.14288,-1.33325 c 1.20636,-1.460246 2.127,-3.333276 2.762,-5.618791 m -0.47618,5.90458 8.762,0 c -4e-5,1.968187 -0.0318,3.809458 -0.0954,5.523594 l 1.23808,0 0,1.714236 -1.33332,0 c -0.127,1.33329 -0.22224,2.634902 -0.2857,3.904655 l 1.42856,0 0,1.618999 -1.61904,0 C 31.36408,50.888041 30.47408,52 28.95008,52 28.56912,52 28.02944,51.9364 27.33104,51.809607 l -0.28572,-1.61898 c 0.82538,0.126796 1.46032,0.190393 1.90476,0.190393 0.44444,0 0.73014,-0.571418 0.85716,-1.714236 l -7.4286,0 c 0.25396,-1.714236 0.47618,-3.555467 0.66666,-5.523594 l -1.33332,0 0,-1.714236 1.5238,0 c 0.127,-1.777714 0.22222,-3.618865 0.28572,-5.523594 m 1.42856,5.523594 5.4286,0 c 0.0636,-1.33327 0.0954,-2.634702 0.0954,-3.904654 l -5.238,0 c -0.0636,1.396787 -0.1588,2.698299 -0.28572,3.904654 m 2.384,-3.427872 c 0.6984,0.444423 1.33334,0.952344 1.90478,1.523743 l -1.14286,1.428507 C 27.52482,40.318455 26.88988,39.747057 26.1915,39.239116 l 1.142,-1.237954 m 2.6666,9.047263 c 0.127,-1.333271 0.2222,-2.634902 0.28572,-3.904655 l -5.4286,0 c -0.127,1.396748 -0.28572,2.6983 -0.47618,3.904655 l 5.619,0 m -2.9524,-3.428473 c 0.76188,0.444424 1.4603,0.952345 2.0952,1.523744 l -1.2381,1.428526 c -0.63492,-0.698394 -1.3016,-1.301531 -2,-1.809452 l 1.14286,-1.142818 m -10,-11.332977 0,14.951842 -1.71428,0 0,-1.618979 -1.61904,0 0,2.476108 -1.71428,0 0,-15.809011 5.0476,0 m -3.3334,11.713763 1.61904,0 0,-10.094824 -1.61904,0 0,10.094824"/>
 <path style="opacity:0.2" d="M 4 57.488281 L 4 58.488281 C 4 58.488281 4.015425 61 7.015625 61 L 42 61 L 42 60 L 7.015625 60 C 4.015425 60 4 57.488281 4 57.488281 z"/>
 <path style="fill:#a3a3a3" d="m 41.992,22 -20,-18 0,38 20,18 z"/>
 <path style="fill:#2095f2" d="M 22,4.001 22,42 56.986742,42 C 59.985606,42 60,39.487066 60,39.487066 L 59.986,6.999922 c 0,0 0,-2.999922 -2.998864,-2.999922 z"/>
 <path style="opacity:0.2" d="m 38.42138,26 c 0.850389,-3.062991 1.62282,-6.24561 2.26074,-9 l 0.135,0 c 0.793229,3.279964 1.510242,5.862861 2.29448,9 l -4.6902,0 m 7.054,9 5.2638,0 L 43.8558,13 37.8834,13 31,35 l 5.0614,0 1.3497,-5 6.7148,0 1.35,5"/>
 <path style="fill:#ffffff" d="m 38.42138,25 c 0.850389,-3.062991 1.62282,-6.24561 2.26074,-9 l 0.135,0 c 0.793229,3.279964 1.510242,5.862861 2.29448,9 l -4.6902,0 m 7.054,9 5.2638,0 L 43.8558,12 37.8834,12 31,34 l 5.0614,0 1.3497,-5 6.7148,0 1.35,5"/>
 <path style="opacity:0.1;fill:#ffffff" d="M 22 4 L 22 5 L 57 5 C 60 5 60 8 60 8 L 60 7 C 60 7 60 4 57 4 L 22 4 z"/>
 <path style="opacity:0.2" d="M 60 39.496094 C 60 39.520094 59.969117 42 56.984375 42 L 22 42 L 22 43 L 56.984375 43 C 59.969117 43 60 40.520094 60 40.496094 L 60 39.496094 z"/>
</svg>
